lib/svgs/team-pen.svg

<?xml version="1.0" encoding="UTF-8"?>
<svg width="16px" height="16px" viewBox="0 0 16 16" version="1.1" xmlns="http://www.w3.org/2000/svg" xmlns:xlink="http://www.w3.org/1999/xlink">
    <!-- Generator: sketchtool 51.3 (57544) - http://www.bohemiancoding.com/sketch -->
    <title>team/team-pen</title>
    <desc>Created with sketchtool.</desc>
    <defs></defs>
    <g id="Icons" stroke="none" stroke-width="1" fill="none" fill-rule="evenodd">
        <g id="Web" transform="translate(-195.000000, -2444.000000)" fill="#000000">
            <g id="team/team-pen" transform="translate(195.000000, 2444.000000)">
                <path d="M6.25203759,3.94786304 L2.23127583,5.45522585 C2.00192395,5.54114824 1.83752127,5.74411451 1.80031079,5.98632092 L-8.8817842e-16,15.0433523 L4.02482108,11.0185312 C3.89830544,10.7539985 3.82185482,10.4610506 3.82185482,10.1484825 C3.82185482,9.02743216 4.73046714,8.11881984 5.85151749,8.11881984 C6.97256784,8.11881984 7.88118016,9.02743216 7.88118016,10.1484825 C7.88118016,11.2695329 6.97256784,12.1781452 5.85151749,12.1781452 C5.53894944,12.1781452 5.24600146,12.1016946 4.98146876,11.9751789 L0.956647674,16 L10.0136791,14.1996892 C10.2552089,14.1624787 10.4581752,13.9973995 10.5440976,13.7687242 L12.052137,9.74728585 L6.25203759,3.94786304 L6.25203759,3.94786304 M15.8016005,6.96394177 L9.03605823,0.198399526 C8.77152552,-0.0661331755 8.34394325,-0.0661331755 8.07941055,0.198399526 L6.7263021,1.55150798 C6.4617694,1.81604068 6.4617694,2.24362295 6.7263021,2.50815565 L13.4918444,9.2736979 C13.6237724,9.40562597 13.7969703,9.47192829 13.9701682,9.47192829 C14.1433661,9.47192829 14.316564,9.40562597 14.448492,9.2736979 L15.8016005,7.92058945 C16.0661332,7.65605675 16.0661332,7.22847448 15.8016005,6.96394177 L15.8016005,6.96394177" id="Shape"></path>
            </g>
        </g>
    </g>
</svg>

<svg xmlns="http://www.w3.org/2000/svg" viewBox="0 0 16 16">
    <path d="M6.252 3.948l-4.02 1.507a.676.676 0 0 0-.432.531L0 15.043l4.025-4.024a2.03 2.03 0 1 1 .957.957L.956 16l9.057-1.8a.677.677 0 0 0 .53-.431l1.508-4.022-5.8-5.8m9.55 3.017L9.036.198a.676.676 0 0 0-.957 0L6.726 1.552a.676.676 0 0 0 0 .956l6.766 6.766a.675.675 0 0 0 .956 0l1.354-1.353a.676.676 0 0 0 0-.957"/>
</svg>
